X: 39473
T: Tarmonbarry, The
R: polka
M: 2/4
K: Gmajor
|:Bd G>B|AG E2|G/A/B/c/ dG|ed Bg|
Bd G>B|AG E>F|GE DB,|G,4:|
|:G,>A, B,G|ED B,D|G/A/B/c/ dG|ed Bg|
e>d BG|AG E>F|2 GE DB,|G,4:|2 GE DE|G4||

